file-image-marker.svg

<svg fill="currentColor" viewBox="0 0 24 24"><path d="m6 20 6-6 1.03 1.03c.25-2.77 2.65-5.03 5.47-5.03.5 0 1 .08 1.5.22V8l-6-6H6c-1.11 0-2 .89-2 2v16a2 2 0 0 0 2 2h9.91c-.41-.56-.91-1.24-1.36-2zm7-16.5L18.5 9H13zM8 9a2 2 0 1 1 0 4c-1.11 0-2-.89-2-2s.9-2 2-2m10.5 3c-1.9 0-3.5 1.6-3.5 3.5 0 2.6 3.5 6.5 3.5 6.5s3.5-3.9 3.5-6.5c0-1.9-1.6-3.5-3.5-3.5m0 4.8c-.7 0-1.2-.6-1.2-1.2 0-.7.6-1.2 1.2-1.2s1.2.6 1.2 1.2c.1.6-.5 1.2-1.2 1.2"/></svg>

<svg  viewBox="0 0 24 24" fill="currentColor"><path  d="M6 20L12 14L13.03 15.03C13.28 12.26 15.68 10 18.5 10C19 10 19.5 10.08 20 10.22V8L14 2H6C4.89 2 4 2.89 4 4V20C4 21.1 4.89 22 6 22H15.91C15.5 21.44 15 20.76 14.55 20H6M13 3.5L18.5 9H13V3.5M8 9C9.11 9 10 9.9 10 11S9.11 13 8 13 6 12.11 6 11 6.9 9 8 9M18.5 12C16.6 12 15 13.6 15 15.5C15 18.1 18.5 22 18.5 22S22 18.1 22 15.5C22 13.6 20.4 12 18.5 12M18.5 16.8C17.8 16.8 17.3 16.2 17.3 15.6C17.3 14.9 17.9 14.4 18.5 14.4S19.7 15 19.7 15.6C19.8 16.2 19.2 16.8 18.5 16.8Z"/></svg>
